X:1
T: Mrs. McLeod of Geastow
C:
R:Strathspey
Q: 128
K:F
M:4/4
L:1/16
|:cB|A3F c3F Ac3 c4|d3c A3A BG3 G3B|A3F c3F A4 c4|d3g c2de f4 f2cB|
A3F c3F Ac3 c4|d3c A3A BG3 G3B|A3F c3F A4 c4|d3g c2de f4 f2g2|
a3f e3f c3f e3f|dg3 g3f e3g c3b|a3f e3f c3f e3f|d3g c2de f4-f4|
c'agf e3f d3b c3a|B3g A3f dcBA G3B|A3F c3A Bcde f3g|a3f efge f6:|
